;FLAVOR:Marlin
;TIME:1521
;Filament used: 1.06593m
;Layer height: 0.2
;MINX:74.34
;MINY:57.233
;MINZ:0.2
;MAXX:104.604
;MAXY:133.505
;MAXZ:12.4
;TARGET_MACHINE.NAME:Kingroon KP3
;Generated with Cura_SteamEngine 5.5.0
M140 S60
M105
M190 S60
M104 S200
M105
M109 S200
M82 ;absolute extrusion mode
G28 ; home all axes
 M117 Purge extruder
 G92 E0 ; reset extruder
 G1 Z1.0 F3000 ; move z up little to prevent scratching of surface
 G1 X2 Y20 Z0.3 F5000.0 ; move to start-line position
 G1 X2 Y175.0 Z0.3 F1500.0 E15 ; draw 1st line
 G1 X2 Y175.0 Z0.4 F5000.0 ; move to side a little
 G1 X2 Y20 Z0.4 F1500.0 E30 ; draw 2nd line
 G92 E0 ; reset extruder
 M106

 G1 Z1.0 F3000 ; move z up little to prevent scratching of surface
G92 E0
G92 E0
G1 F2400 E-4
;LAYER_COUNT:60
;LAYER:0
M106 S76.5
G1 F300 Z0.6
G0 F6000 X76.47 Y59.907 Z0.6
;TYPE:SKIRT
G1 F300 Z0.2
G1 F2400 E0
G1 F1200 X77.17 Y59.23 E0.03563
G1 X78.274 Y58.423 E0.08566
G1 X79.187 Y57.951 E0.12326
G1 X80.17 Y57.587 E0.16161
G1 X81.516 Y57.291 E0.21204
G1 X81.782 Y57.263 E0.22182
G1 X96.466 Y57.233 E0.75905
G1 X98.178 Y57.434 E0.82212
G1 X99.055 Y57.673 E0.85537
G1 X100.177 Y58.148 E0.89995
G1 X100.986 Y58.629 E0.93439
G1 X101.879 Y59.315 E0.97559
G1 X102.436 Y59.863 E1.00417
G1 X103.458 Y61.231 E1.06665
G1 X103.862 Y62.01 E1.09875
G1 X104.258 Y63.076 E1.14036
G1 X104.509 Y64.18 E1.18178
G1 X104.604 Y65.189 E1.21886
G1 X104.558 Y126.219 E3.45171
G1 X104.481 Y126.759 E3.47167
G1 X104.066 Y128.254 E3.52843
G1 X103.728 Y129.019 E3.55903
G1 X103.309 Y129.744 E3.58967
G1 X102.517 Y130.79 E3.63767
G1 X101.774 Y131.515 E3.67565
G1 X100.614 Y132.359 E3.72813
G1 X99.835 Y132.763 E3.76024
G1 X98.769 Y133.159 E3.80184
G1 X97.665 Y133.41 E3.84327
G1 X96.649 Y133.505 E3.8806
G1 X81.626 Y133.459 E4.43024
G1 X81.086 Y133.382 E4.45019
G1 X79.591 Y132.967 E4.50696
G1 X78.826 Y132.629 E4.53756
G1 X78.101 Y132.21 E4.56819
G1 X77.055 Y131.418 E4.61619
G1 X76.33 Y130.675 E4.65417
G1 X75.486 Y129.515 E4.70666
G1 X75.082 Y128.736 E4.73876
G1 X74.686 Y127.67 E4.78037
G1 X74.435 Y126.566 E4.82179
G1 X74.34 Y125.557 E4.85887
G1 X74.386 Y64.527 E7.09172
G1 X74.463 Y63.987 E7.11168
G1 X74.878 Y62.492 E7.16844
G1 X75.216 Y61.727 E7.19904
G1 X75.604 Y61.049 E7.22762
G1 X76.47 Y59.907 E7.28006
G0 F6000 X76.777 Y60.222
G1 F1200 X77.43 Y59.585 E7.31343
G1 X78.534 Y58.778 E7.36346
G1 X79.34 Y58.364 E7.39662
G1 X80.323 Y58 E7.43497
G1 X81.562 Y57.729 E7.48137
G1 X81.828 Y57.701 E7.49115
G1 X96.467 Y57.673 E8.02674
G1 X98.062 Y57.859 E8.08549
G1 X98.939 Y58.098 E8.11875
G1 X100.004 Y58.553 E8.16112
G1 X100.719 Y58.979 E8.19157
G1 X101.57 Y59.629 E8.23075
G1 X102.127 Y60.177 E8.25933
G1 X103.067 Y61.434 E8.31676
G1 X103.471 Y62.213 E8.34886
G1 X103.829 Y63.175 E8.38642
G1 X104.071 Y64.222 E8.42573
G1 X104.164 Y65.189 E8.46128
G1 X104.122 Y126.157 E10.69186
G1 X104.045 Y126.697 E10.71182
G1 X103.663 Y128.077 E10.7642
G1 X103.346 Y128.8 E10.79309
G1 X102.958 Y129.478 E10.82167
G1 X102.166 Y130.524 E10.86967
G1 X101.514 Y131.16 E10.90299
G1 X100.411 Y131.968 E10.95302
G1 X99.632 Y132.372 E10.98512
G1 X98.67 Y132.73 E11.02268
G1 X97.623 Y132.972 E11.06199
G1 X96.65 Y133.065 E11.09775
G1 X81.688 Y133.023 E11.64516
G1 X81.148 Y132.946 E11.66511
G1 X79.768 Y132.564 E11.7175
G1 X79.045 Y132.247 E11.74638
G1 X78.367 Y131.859 E11.77496
G1 X77.321 Y131.067 E11.82296
G1 X76.685 Y130.415 E11.85629
G1 X75.877 Y129.312 E11.90631
G1 X75.473 Y128.533 E11.93842
G1 X75.115 Y127.571 E11.97597
G1 X74.873 Y126.524 E12.01529
G1 X74.78 Y125.557 E12.05083
G1 X74.822 Y64.589 E14.28141
G1 X74.899 Y64.049 E14.30137
G1 X75.281 Y62.669 E14.35376
G1 X75.598 Y61.946 E14.38264
G1 X75.986 Y61.268 E14.41122
G1 X76.777 Y60.222 E14.4592
G0 F6000 X77.086 Y60.535
G1 F1200 X77.691 Y59.939 E14.49027
G1 X78.736 Y59.169 E14.53776
G1 X79.493 Y58.777 E14.56895
G1 X80.476 Y58.413 E14.6073
G1 X81.608 Y58.167 E14.64968
G1 X81.874 Y58.139 E14.65947
G1 X96.468 Y58.113 E15.19341
G1 X97.946 Y58.284 E15.24784
G1 X98.823 Y58.523 E15.2811
G1 X99.78 Y58.932 E15.31917
G1 X100.453 Y59.33 E15.34778
G1 X101.261 Y59.943 E15.38489
G1 X101.818 Y60.491 E15.41347
G1 X102.676 Y61.637 E15.46585
G1 X103.08 Y62.416 E15.49796
G1 X103.4 Y63.274 E15.53146
G1 X103.642 Y64.321 E15.57078
G1 X103.724 Y65.189 E15.60267
G1 X103.686 Y126.095 E17.83099
G1 X103.609 Y126.635 E17.85095
G1 X103.26 Y127.901 E17.89899
G1 X102.964 Y128.581 E17.92613
G1 X102.576 Y129.259 E17.95471
G1 X101.857 Y130.211 E17.99835
G1 X101.253 Y130.806 E18.02937
G1 X100.208 Y131.577 E18.07688
G1 X99.429 Y131.981 E18.10899
G1 X98.571 Y132.301 E18.14249
G1 X97.524 Y132.543 E18.18181
G1 X96.651 Y132.625 E18.21389
G1 X81.75 Y132.587 E18.75906
G1 X81.21 Y132.51 E18.77902
G1 X79.944 Y132.161 E18.82706
G1 X79.264 Y131.865 E18.8542
G1 X78.586 Y131.477 E18.88278
G1 X77.634 Y130.758 E18.92642
G1 X77.039 Y130.154 E18.95744
G1 X76.268 Y129.109 E19.00496
G1 X75.864 Y128.33 E19.03706
G1 X75.544 Y127.472 E19.07056
G1 X75.302 Y126.425 E19.10988
G1 X75.22 Y125.557 E19.14178
G1 X75.258 Y64.651 E21.37009
G1 X75.335 Y64.111 E21.39005
G1 X75.684 Y62.845 E21.4381
G1 X75.98 Y62.165 E21.46523
G1 X76.368 Y61.487 E21.49381
G1 X77.086 Y60.535 E21.53744
G0 F6000 X77.397 Y60.847
G1 F1200 X77.954 Y60.292 E21.5662
G1 X78.94 Y59.559 E21.61115
G1 X79.646 Y59.19 E21.6403
G1 X80.629 Y58.826 E21.67865
G1 X81.654 Y58.605 E21.71701
G1 X81.92 Y58.577 E21.7268
G1 X96.469 Y58.553 E22.25909
G1 X97.83 Y58.709 E22.30921
G1 X98.707 Y58.948 E22.34247
G1 X99.557 Y59.312 E22.3763
G1 X100.188 Y59.682 E22.40306
G1 X100.952 Y60.257 E22.43804
G1 X101.509 Y60.805 E22.46663
G1 X102.286 Y61.841 E22.51401
G1 X102.668 Y62.572 E22.54418
G1 X102.971 Y63.373 E22.57552
G1 X103.213 Y64.42 E22.61483
G1 X103.284 Y65.189 E22.64309
G1 X103.25 Y126.033 E24.86913
G1 X103.173 Y126.573 E24.88909
G1 X102.856 Y127.727 E24.93288
G1 X102.581 Y128.364 E24.95826
G1 X102.224 Y128.995 E24.98478
G1 X101.547 Y129.899 E25.0261
G1 X100.99 Y130.453 E25.05485
G1 X100.004 Y131.187 E25.09982
G1 X99.273 Y131.569 E25.12999
G1 X98.472 Y131.872 E25.16133
G1 X97.425 Y132.114 E25.20064
G1 X96.652 Y132.185 E25.22904
G1 X81.812 Y132.151 E25.77198
G1 X81.272 Y132.074 E25.79194
G1 X80.118 Y131.757 E25.83572
G1 X79.481 Y131.482 E25.86111
G1 X78.85 Y131.125 E25.88763
G1 X77.946 Y130.448 E25.92895
G1 X77.392 Y129.891 E25.95769
G1 X76.658 Y128.905 E26.00267
G1 X76.276 Y128.174 E26.03284
G1 X75.973 Y127.373 E26.06417
G1 X75.731 Y126.326 E26.10349
G1 X75.66 Y125.557 E26.13174
G1 X75.694 Y64.713 E28.35779
G1 X75.771 Y64.173 E28.37775
G1 X76.088 Y63.019 E28.42153
G1 X76.363 Y62.382 E28.44692
G1 X76.72 Y61.751 E28.47344
G1 X77.397 Y60.847 E28.51476
G0 F6000 X77.709 Y61.157
G1 F1200 X78.218 Y60.644 E28.5412
G1 X79.146 Y59.948 E28.58364
G1 X79.799 Y59.603 E28.61066
G1 X80.782 Y59.239 E28.64901
G1 X81.7 Y59.043 E28.68336
G1 X81.966 Y59.015 E28.69314
G1 X96.47 Y58.993 E29.22379
G1 X97.714 Y59.134 E29.26959
G1 X98.591 Y59.373 E29.30285
G1 X99.336 Y59.693 E29.33251
G1 X99.925 Y60.035 E29.35743
G1 X100.643 Y60.571 E29.39021
G1 X101.2 Y61.119 E29.4188
G1 X101.897 Y62.046 E29.46123
G1 X102.257 Y62.73 E29.48951
G1 X102.542 Y63.472 E29.51859
G1 X102.784 Y64.519 E29.55791
G1 X102.844 Y65.189 E29.58252
G1 X102.814 Y125.971 E31.8063
G1 X102.737 Y126.511 E31.82626
G1 X102.451 Y127.554 E31.86582
G1 X102.198 Y128.147 E31.88941
G1 X101.841 Y128.778 E31.91594
G1 X101.235 Y129.589 E31.95298
G1 X100.726 Y130.101 E31.97939
G1 X99.799 Y130.798 E32.02182
G1 X99.115 Y131.158 E32.0501
G1 X98.373 Y131.443 E32.07918
G1 X97.326 Y131.685 E32.1185
G1 X96.653 Y131.745 E32.14322
G1 X81.874 Y131.715 E32.68393
G1 X81.334 Y131.638 E32.70388
G1 X80.291 Y131.352 E32.74345
G1 X79.698 Y131.099 E32.76704
G1 X79.067 Y130.742 E32.79356
G1 X78.256 Y130.136 E32.8306
G1 X77.744 Y129.627 E32.85702
G1 X77.047 Y128.7 E32.89945
G1 X76.687 Y128.016 E32.92773
G1 X76.402 Y127.274 E32.95681
G1 X76.16 Y126.227 E32.99612
G1 X76.1 Y125.557 E33.02074
G1 X76.13 Y64.775 E35.24451
G1 X76.207 Y64.235 E35.26447
G1 X76.493 Y63.192 E35.30404
G1 X76.746 Y62.599 E35.32763
G1 X77.103 Y61.968 E35.35415
G1 X77.709 Y61.157 E35.39119
G0 F6000 X78.023 Y61.465
G1 F1200 X78.484 Y60.995 E35.41528
G1 X79.352 Y60.337 E35.45513
G1 X80.005 Y59.992 E35.48215
G1 X80.875 Y59.669 E35.5161
G1 X81.746 Y59.481 E35.5487
G1 X82.012 Y59.453 E35.55849
G1 X96.471 Y59.433 E36.08749
G1 X97.598 Y59.559 E36.12898
G1 X98.475 Y59.798 E36.16223
G1 X99.117 Y60.075 E36.18781
G1 X99.662 Y60.388 E36.21081
G1 X100.38 Y60.924 E36.24359
G1 X100.85 Y61.385 E36.26767
G1 X101.508 Y62.252 E36.3075
G1 X101.847 Y62.89 E36.33393
G1 X102.113 Y63.571 E36.36068
G1 X102.355 Y64.618 E36.39999
G1 X102.404 Y65.189 E36.42096
G1 X102.378 Y125.909 E38.64247
G1 X102.301 Y126.449 E38.66243
G1 X102.046 Y127.381 E38.69778
G1 X101.793 Y127.974 E38.72137
G1 X101.488 Y128.516 E38.74412
G1 X100.921 Y129.281 E38.77896
G1 X100.46 Y129.751 E38.80304
G1 X99.593 Y130.409 E38.84287
G1 X98.955 Y130.748 E38.8693
G1 X98.274 Y131.014 E38.89605
G1 X97.227 Y131.256 E38.93536
G1 X96.654 Y131.305 E38.9564
G1 X81.936 Y131.279 E39.49488
G1 X81.396 Y131.202 E39.51483
G1 X80.464 Y130.947 E39.55019
G1 X79.871 Y130.694 E39.57377
G1 X79.329 Y130.389 E39.59653
G1 X78.564 Y129.822 E39.63137
G1 X78.094 Y129.361 E39.65545
G1 X77.436 Y128.494 E39.69527
G1 X77.097 Y127.856 E39.72171
G1 X76.831 Y127.175 E39.74845
G1 X76.589 Y126.128 E39.78777
G1 X76.54 Y125.557 E39.80874
G1 X76.566 Y64.837 E42.03025
G1 X76.643 Y64.297 E42.0502
G1 X76.898 Y63.365 E42.08556
G1 X77.151 Y62.772 E42.10914
G1 X77.456 Y62.23 E42.1319
G1 X78.023 Y61.465 E42.16674
G0 F6000 X78.34 Y61.771
G1 F1200 X78.752 Y61.344 E42.18844
G1 X79.559 Y60.725 E42.22565
G1 X80.16 Y60.404 E42.25058
G1 X80.969 Y60.099 E42.28221
G1 X81.792 Y59.919 E42.31304
G1 X82.058 Y59.891 E42.32282
G1 X96.472 Y59.873 E42.85017
G1 X97.548 Y59.996 E42.8898
G1 X98.302 Y60.202 E42.9184
G1 X98.9 Y60.458 E42.94219
G1 X99.4 Y60.742 E42.96323
G1 X100.074 Y61.241 E42.99391
G1 X100.501 Y61.653 E43.01562
G1 X101.12 Y62.46 E43.05283
G1 X101.438 Y63.053 E43.07745
G1 X101.685 Y63.672 E43.10183
G1 X101.917 Y64.657 E43.13886
G1 X101.964 Y65.189 E43.1584
G1 X101.942 Y125.847 E45.37764
G1 X101.865 Y126.387 E45.3976
G1 X101.622 Y127.264 E45.43089
G1 X101.408 Y127.76 E45.45066
G1 X101.133 Y128.255 E45.47137
G1 X100.604 Y128.975 E45.50406
G1 X100.192 Y129.402 E45.52577
G1 X99.385 Y130.021 E45.56298
G1 X98.792 Y130.339 E45.5876
G1 X98.173 Y130.586 E45.61198
G1 X97.188 Y130.818 E45.649
G1 X96.655 Y130.865 E45.66858
G1 X81.998 Y130.843 E46.20482
G1 X81.458 Y130.766 E46.22478
G1 X80.581 Y130.523 E46.25808
G1 X80.085 Y130.309 E46.27784
G1 X79.59 Y130.034 E46.29856
G1 X78.87 Y129.505 E46.33124
G1 X78.443 Y129.093 E46.35295
G1 X77.824 Y128.286 E46.39016
G1 X77.506 Y127.693 E46.41478
G1 X77.259 Y127.074 E46.43916
G1 X77.027 Y126.089 E46.47619
G1 X76.98 Y125.557 E46.49573
G1 X77.002 Y64.899 E48.71497
G1 X77.079 Y64.359 E48.73493
G1 X77.322 Y63.482 E48.76822
G1 X77.536 Y62.986 E48.78798
G1 X77.811 Y62.491 E48.8087
G1 X78.34 Y61.771 E48.84139
G0 F6000 X78.657 Y62.077
G1 F1200 X79.069 Y61.65 E48.8631
G1 X79.768 Y61.112 E48.89537
G1 X80.318 Y60.815 E48.91824
G1 X81.064 Y60.529 E48.94747
G1 X81.838 Y60.357 E48.97648
G1 X82.104 Y60.329 E48.98626
G1 X96.472 Y60.313 E49.51193
G1 X97.497 Y60.433 E49.54969
G1 X98.13 Y60.607 E49.57371
G1 X98.685 Y60.842 E49.59576
G1 X99.14 Y61.097 E49.61484
G1 X99.768 Y61.558 E49.64334
G1 X100.195 Y61.97 E49.66505
G1 X100.733 Y62.669 E49.69732
G1 X101.029 Y63.216 E49.72008
G1 X101.276 Y63.835 E49.74446
G1 X101.479 Y64.697 E49.77686
G1 X101.524 Y65.189 E49.79494
G1 X101.506 Y125.785 E52.01191
G1 X101.429 Y126.325 E52.03187
G1 X101.217 Y127.091 E52.06095
G1 X101.023 Y127.546 E52.07904
G1 X100.748 Y128.041 E52.09976
G1 X100.287 Y128.669 E52.12826
G1 X99.875 Y129.096 E52.14997
G1 X99.176 Y129.634 E52.18224
G1 X98.629 Y129.93 E52.205
G1 X98.01 Y130.177 E52.22938
G1 X97.148 Y130.38 E52.26178
G1 X96.656 Y130.425 E52.27986
G1 X82.06 Y130.407 E52.81387
G1 X81.52 Y130.33 E52.83382
G1 X80.754 Y130.118 E52.8629
G1 X80.299 Y129.924 E52.881
G1 X79.804 Y129.649 E52.90172
G1 X79.176 Y129.188 E52.93022
G1 X78.749 Y128.776 E52.95193
G1 X78.211 Y128.077 E52.9842
G1 X77.915 Y127.53 E53.00695
G1 X77.668 Y126.911 E53.03134
G1 X77.465 Y126.049 E53.06374
G1 X77.42 Y125.557 E53.08181
G1 X77.438 Y64.961 E55.29879
G1 X77.515 Y64.421 E55.31874
G1 X77.727 Y63.655 E55.34782
G1 X77.921 Y63.2 E55.36592
G1 X78.196 Y62.705 E55.38664
G1 X78.657 Y62.077 E55.41514
G0 F6000 X78.974 Y62.383
G1 F1200 X79.386 Y61.956 E55.43685
G1 X79.979 Y61.498 E55.46426
G1 X80.478 Y61.225 E55.48507
G1 X81.161 Y60.958 E55.5119
G1 X81.884 Y60.795 E55.53902
G1 X82.15 Y60.767 E55.5488
G1 X96.472 Y60.753 E56.07279
G1 X97.383 Y60.858 E56.10634
G1 X97.96 Y61.013 E56.1282
G1 X98.472 Y61.227 E56.1485
G1 X98.881 Y61.453 E56.1656
G1 X99.462 Y61.875 E56.19187
G1 X99.889 Y62.287 E56.21358
G1 X100.347 Y62.88 E56.24099
G1 X100.62 Y63.379 E56.2618
G1 X100.867 Y63.998 E56.28618
G1 X101.05 Y64.795 E56.3161
G1 X101.084 Y65.189 E56.33057
G1 X101.07 Y125.723 E58.54528
G1 X100.993 Y126.263 E58.56523
G1 X100.812 Y126.918 E58.59009
G1 X100.618 Y127.373 E58.60819
G1 X100.392 Y127.782 E58.62529
G1 X99.97 Y128.363 E58.65156
G1 X99.558 Y128.79 E58.67327
G1 X98.965 Y129.248 E58.70068
G1 X98.466 Y129.521 E58.72149
G1 X97.847 Y129.768 E58.74587
G1 X97.05 Y129.951 E58.77579
G1 X96.656 Y129.985 E58.79026
G1 X82.122 Y129.971 E59.322
G1 X81.582 Y129.894 E59.34196
G1 X80.927 Y129.713 E59.36682
G1 X80.472 Y129.519 E59.38492
G1 X80.063 Y129.293 E59.40202
G1 X79.482 Y128.871 E59.42829
G1 X79.055 Y128.459 E59.45
G1 X78.597 Y127.866 E59.47741
G1 X78.324 Y127.367 E59.49822
G1 X78.077 Y126.748 E59.5226
G1 X77.894 Y125.951 E59.55252
G1 X77.86 Y125.557 E59.56699
G1 X77.874 Y65.023 E61.78169
G1 X77.951 Y64.483 E61.80165
G1 X78.132 Y63.828 E61.82651
G1 X78.326 Y63.373 E61.84461
G1 X78.552 Y62.964 E61.86171
G1 X78.974 Y62.383 E61.88798
G0 F6000 X79.291 Y62.689
G1 F1200 X79.703 Y62.262 E61.90969
G1 X80.193 Y61.883 E61.93235
G1 X80.641 Y61.634 E61.9511
G1 X81.26 Y61.387 E61.97549
G1 X81.93 Y61.233 E62.00064
G1 X82.196 Y61.205 E62.01042
G1 X96.472 Y61.193 E62.53273
G1 X97.269 Y61.283 E62.56207
G1 X97.846 Y61.438 E62.58393
G1 X98.259 Y61.612 E62.60033
G1 X98.668 Y61.838 E62.61742
G1 X99.156 Y62.192 E62.63948
G1 X99.583 Y62.604 E62.66119
G1 X99.962 Y63.094 E62.68385
G1 X100.211 Y63.542 E62.70261
G1 X100.458 Y64.161 E62.72699
G1 X100.612 Y64.835 E62.75228
G1 X100.644 Y65.189 E62.76529
G1 X100.634 Y125.661 E64.97772
G1 X100.557 Y126.201 E64.99768
G1 X100.407 Y126.747 E65.0184
G1 X100.233 Y127.16 E65.03479
G1 X100.007 Y127.569 E65.05189
G1 X99.653 Y128.057 E65.07395
G1 X99.241 Y128.484 E65.09566
G1 X98.751 Y128.863 E65.11832
G1 X98.303 Y129.112 E65.13707
G1 X97.684 Y129.359 E65.16145
G1 X97.01 Y129.513 E65.18675
G1 X96.656 Y129.545 E65.19975
G1 X82.184 Y129.535 E65.72923
G1 X81.644 Y129.458 E65.74918
G1 X81.098 Y129.308 E65.7699
G1 X80.685 Y129.134 E65.7863
G1 X80.276 Y128.908 E65.80339
G1 X79.788 Y128.554 E65.82545
G1 X79.361 Y128.142 E65.84716
G1 X78.982 Y127.652 E65.86982
G1 X78.733 Y127.204 E65.88858
G1 X78.486 Y126.585 E65.91296
G1 X78.332 Y125.911 E65.93825
G1 X78.3 Y125.557 E65.95126
G1 X78.31 Y65.085 E68.16369
G1 X78.387 Y64.545 E68.18365
G1 X78.537 Y63.999 E68.20437
G1 X78.711 Y63.586 E68.22076
G1 X78.937 Y63.177 E68.23786
G1 X79.291 Y62.689 E68.25992
G0 F6000 X79.61 Y62.992
G1 F1200 X79.975 Y62.608 E68.2793
G1 X80.41 Y62.266 E68.29954
G1 X80.804 Y62.043 E68.31611
G1 X81.423 Y61.796 E68.34049
G1 X81.976 Y61.671 E68.36123
G1 X82.242 Y61.643 E68.37102
G1 X96.472 Y61.633 E68.89164
G1 X97.158 Y61.709 E68.91689
G1 X97.678 Y61.845 E68.93656
G1 X98.046 Y61.997 E68.95112
G1 X98.455 Y62.223 E68.96822
G1 X98.853 Y62.511 E68.98619
G1 X99.237 Y62.876 E69.00558
G1 X99.579 Y63.311 E69.02582
G1 X99.802 Y63.705 E69.04239
G1 X100.049 Y64.324 E69.06677
G1 X100.174 Y64.877 E69.08751
G1 X100.204 Y65.189 E69.09898
G1 X100.198 Y125.599 E71.30915
G1 X100.121 Y126.139 E71.3291
G1 X100 Y126.579 E71.3458
G1 X99.848 Y126.947 E71.36037
G1 X99.622 Y127.356 E71.37746
G1 X99.334 Y127.754 E71.39544
G1 X98.969 Y128.138 E71.41482
