;FLAVOR:Marlin
;TIME:1422
;Filament used: 0.899597m
;Layer height: 0.2
;MINX:50.866
;MINY:78.389
;MINZ:0.2
;MAXX:127.13
;MAXY:108.661
;MAXZ:12.4
;TARGET_MACHINE.NAME:Kingroon KP3
;Generated with Cura_SteamEngine 5.5.0
M140 S60
M105
M190 S60
M104 S200
M105
M109 S200
M82 ;absolute extrusion mode
G28 ; home all axes
 M117 Purge extruder
 G92 E0 ; reset extruder
 G1 Z1.0 F3000 ; move z up little to prevent scratching of surface
 G1 X2 Y20 Z0.3 F5000.0 ; move to start-line position
 G1 X2 Y175.0 Z0.3 F1500.0 E15 ; draw 1st line
 G1 X2 Y175.0 Z0.4 F5000.0 ; move to side a little
 G1 X2 Y20 Z0.4 F1500.0 E30 ; draw 2nd line
 G92 E0 ; reset extruder
 M106

 G1 Z1.0 F3000 ; move z up little to prevent scratching of surface
G92 E0
G92 E0
G1 F2400 E-4
;LAYER_COUNT:60
;LAYER:0
M106 S76.5
G1 F300 Z0.6
G0 F6000 X54.8 Y79.579 Z0.6
;TYPE:SKIRT
G1 F300 Z0.2
G1 F2400 E0
G1 F1200 X55.713 Y79.107 E0.0376
G1 X56.696 Y78.743 E0.07595
G1 X58.042 Y78.447 E0.12638
G1 X58.308 Y78.419 E0.13616
G1 X118.998 Y78.389 E2.35657
G1 X120.704 Y78.59 E2.41942
G1 X121.581 Y78.829 E2.45268
G1 X122.703 Y79.304 E2.49726
G1 X123.512 Y79.785 E2.53169
G1 X124.405 Y80.471 E2.57289
G1 X124.962 Y81.019 E2.60148
G1 X125.984 Y82.387 E2.66395
G1 X126.388 Y83.166 E2.69606
G1 X126.784 Y84.232 E2.73766
G1 X127.035 Y85.336 E2.77908
G1 X127.13 Y86.352 E2.81642
G1 X127.084 Y101.375 E3.36605
G1 X127.007 Y101.915 E3.38601
G1 X126.592 Y103.41 E3.44277
G1 X126.254 Y104.175 E3.47337
G1 X125.835 Y104.9 E3.50401
G1 X125.043 Y105.946 E3.55201
G1 X124.3 Y106.671 E3.58999
G1 X123.14 Y107.515 E3.64248
G1 X122.361 Y107.919 E3.67458
G1 X121.295 Y108.315 E3.71619
G1 X120.191 Y108.566 E3.75761
G1 X119.182 Y108.661 E3.79469
G1 X58.152 Y108.615 E6.02754
G1 X57.612 Y108.538 E6.0475
G1 X56.117 Y108.123 E6.10426
G1 X55.352 Y107.785 E6.13486
G1 X54.627 Y107.366 E6.16549
G1 X53.581 Y106.574 E6.2135
G1 X52.856 Y105.831 E6.25148
G1 X52.012 Y104.671 E6.30396
G1 X51.608 Y103.892 E6.33607
G1 X51.212 Y102.826 E6.37767
G1 X50.961 Y101.722 E6.41909
G1 X50.866 Y100.706 E6.45643
G1 X50.912 Y85.683 E7.00606
G1 X50.989 Y85.143 E7.02602
G1 X51.404 Y83.648 E7.08278
G1 X51.742 Y82.883 E7.11338
G1 X52.13 Y82.205 E7.14196
G1 X52.996 Y81.063 E7.1944
G1 X53.696 Y80.386 E7.23003
G1 X54.8 Y79.579 E7.28006
G0 F6000 X55.06 Y79.934
G1 F1200 X55.866 Y79.52 E7.31321
G1 X56.849 Y79.156 E7.35156
G1 X58.088 Y78.885 E7.39796
G1 X58.354 Y78.857 E7.40775
G1 X118.998 Y78.829 E9.62648
G1 X120.588 Y79.015 E9.68505
G1 X121.465 Y79.254 E9.7183
G1 X122.53 Y79.709 E9.76068
G1 X123.245 Y80.135 E9.79113
G1 X124.096 Y80.785 E9.8303
G1 X124.653 Y81.333 E9.85889
G1 X125.593 Y82.59 E9.91632
G1 X125.997 Y83.369 E9.94842
G1 X126.355 Y84.331 E9.98598
G1 X126.597 Y85.378 E10.02529
G1 X126.69 Y86.351 E10.06105
G1 X126.648 Y101.313 E10.60846
G1 X126.571 Y101.853 E10.62841
G1 X126.189 Y103.233 E10.6808
G1 X125.872 Y103.956 E10.70968
G1 X125.484 Y104.634 E10.73826
G1 X124.692 Y105.68 E10.78626
G1 X124.04 Y106.316 E10.81959
G1 X122.937 Y107.124 E10.86961
G1 X122.158 Y107.528 E10.90172
G1 X121.196 Y107.886 E10.93927
G1 X120.149 Y108.128 E10.97859
G1 X119.182 Y108.221 E11.01413
G1 X58.214 Y108.179 E13.24471
G1 X57.674 Y108.102 E13.26467
G1 X56.294 Y107.72 E13.31706
G1 X55.571 Y107.403 E13.34594
G1 X54.893 Y107.015 E13.37452
G1 X53.847 Y106.223 E13.42252
G1 X53.211 Y105.571 E13.45585
G1 X52.403 Y104.468 E13.50587
G1 X51.999 Y103.689 E13.53797
G1 X51.641 Y102.727 E13.57553
G1 X51.399 Y101.68 E13.61484
G1 X51.306 Y100.707 E13.6506
G1 X51.348 Y85.745 E14.19801
G1 X51.425 Y85.205 E14.21797
G1 X51.807 Y83.825 E14.27035
G1 X52.124 Y83.102 E14.29924
G1 X52.512 Y82.424 E14.32782
G1 X53.303 Y81.378 E14.37579
G1 X53.956 Y80.741 E14.40917
G1 X55.06 Y79.934 E14.4592
G0 F6000 X55.262 Y80.325
G1 F1200 X56.019 Y79.933 E14.49039
G1 X57.002 Y79.569 E14.52874
G1 X58.134 Y79.323 E14.57112
G1 X58.4 Y79.295 E14.58091
G1 X118.998 Y79.269 E16.79796
G1 X120.472 Y79.44 E16.85225
G1 X121.349 Y79.679 E16.8855
G1 X122.306 Y80.088 E16.92358
G1 X122.979 Y80.486 E16.95218
G1 X123.787 Y81.099 E16.98929
G1 X124.344 Y81.647 E17.01788
G1 X125.202 Y82.793 E17.07026
G1 X125.606 Y83.572 E17.10236
G1 X125.926 Y84.43 E17.13586
G1 X126.168 Y85.477 E17.17518
G1 X126.25 Y86.35 E17.20726
G1 X126.212 Y101.251 E17.75243
G1 X126.135 Y101.791 E17.77239
G1 X125.786 Y103.057 E17.82043
G1 X125.49 Y103.737 E17.84757
G1 X125.102 Y104.415 E17.87615
G1 X124.383 Y105.367 E17.9198
G1 X123.779 Y105.962 E17.95081
G1 X122.734 Y106.733 E17.99833
G1 X121.955 Y107.137 E18.03043
G1 X121.097 Y107.457 E18.06394
G1 X120.05 Y107.699 E18.10325
G1 X119.182 Y107.781 E18.13515
G1 X58.276 Y107.743 E20.36347
G1 X57.736 Y107.666 E20.38342
G1 X56.47 Y107.317 E20.43147
G1 X55.79 Y107.021 E20.4586
G1 X55.112 Y106.633 E20.48718
G1 X54.16 Y105.914 E20.53083
G1 X53.565 Y105.31 E20.56185
G1 X52.794 Y104.265 E20.60936
G1 X52.39 Y103.486 E20.64147
G1 X52.07 Y102.628 E20.67497
G1 X51.828 Y101.581 E20.71428
G1 X51.746 Y100.708 E20.74636
G1 X51.784 Y85.807 E21.29154
G1 X51.861 Y85.267 E21.31149
G1 X52.21 Y84.001 E21.35954
G1 X52.506 Y83.321 E21.38667
G1 X52.894 Y82.643 E21.41525
G1 X53.612 Y81.691 E21.45888
G1 X54.217 Y81.095 E21.48995
G1 X55.262 Y80.325 E21.53744
G0 F6000 X55.466 Y80.715
G1 F1200 X56.172 Y80.346 E21.56658
G1 X57.155 Y79.982 E21.60493
G1 X58.18 Y79.761 E21.6433
G1 X58.446 Y79.733 E21.65308
G1 X118.998 Y79.709 E23.86845
G1 X120.356 Y79.865 E23.91846
G1 X121.233 Y80.104 E23.95171
G1 X122.083 Y80.468 E23.98554
G1 X122.714 Y80.838 E24.01231
G1 X123.478 Y81.413 E24.04729
G1 X124.035 Y81.961 E24.07588
G1 X124.812 Y82.997 E24.12326
G1 X125.194 Y83.728 E24.15343
G1 X125.497 Y84.529 E24.18477
G1 X125.739 Y85.576 E24.22408
G1 X125.81 Y86.349 E24.25248
G1 X125.776 Y101.189 E24.79542
G1 X125.699 Y101.729 E24.81538
G1 X125.382 Y102.883 E24.85916
G1 X125.107 Y103.52 E24.88455
G1 X124.75 Y104.151 E24.91107
G1 X124.073 Y105.055 E24.95239
G1 X123.516 Y105.609 E24.98113
G1 X122.53 Y106.343 E25.0261
G1 X121.799 Y106.725 E25.05628
G1 X120.998 Y107.028 E25.08761
G1 X119.951 Y107.27 E25.12693
G1 X119.182 Y107.341 E25.15518
G1 X58.338 Y107.307 E27.38123
G1 X57.798 Y107.23 E27.40119
G1 X56.644 Y106.913 E27.44497
G1 X56.007 Y106.638 E27.47036
G1 X55.376 Y106.281 E27.49688
G1 X54.472 Y105.604 E27.5382
G1 X53.918 Y105.047 E27.56694
G1 X53.184 Y104.061 E27.61192
G1 X52.802 Y103.33 E27.64209
G1 X52.499 Y102.529 E27.67342
G1 X52.257 Y101.482 E27.71274
G1 X52.186 Y100.709 E27.74114
G1 X52.22 Y85.869 E28.28408
G1 X52.297 Y85.329 E28.30404
G1 X52.614 Y84.175 E28.34782
G1 X52.889 Y83.538 E28.3732
G1 X53.246 Y82.907 E28.39973
G1 X53.923 Y82.003 E28.44105
G1 X54.48 Y81.448 E28.46982
G1 X55.466 Y80.715 E28.51477
G0 F6000 X55.672 Y81.104
G1 F1200 X56.325 Y80.759 E28.54179
G1 X57.308 Y80.395 E28.58014
G1 X58.226 Y80.199 E28.61448
G1 X58.492 Y80.171 E28.62427
G1 X118.998 Y80.149 E30.83795
G1 X120.24 Y80.29 E30.88368
G1 X121.117 Y80.529 E30.91694
G1 X121.862 Y80.849 E30.9466
G1 X122.451 Y81.191 E30.97152
G1 X123.169 Y81.727 E31.0043
G1 X123.726 Y82.275 E31.03289
G1 X124.423 Y83.202 E31.07532
G1 X124.783 Y83.886 E31.1036
G1 X125.068 Y84.628 E31.13268
G1 X125.31 Y85.675 E31.172
G1 X125.37 Y86.348 E31.19672
G1 X125.34 Y101.127 E31.73742
G1 X125.263 Y101.667 E31.75738
G1 X124.977 Y102.71 E31.79695
G1 X124.724 Y103.303 E31.82054
G1 X124.367 Y103.934 E31.84706
G1 X123.761 Y104.745 E31.8841
G1 X123.252 Y105.257 E31.91051
G1 X122.325 Y105.954 E31.95295
G1 X121.641 Y106.314 E31.98123
G1 X120.899 Y106.599 E32.01031
G1 X119.852 Y106.841 E32.04962
G1 X119.182 Y106.901 E32.07423
G1 X58.4 Y106.871 E34.29801
G1 X57.86 Y106.794 E34.31797
G1 X56.817 Y106.508 E34.35754
G1 X56.224 Y106.255 E34.38113
G1 X55.593 Y105.898 E34.40765
G1 X54.782 Y105.292 E34.44469
G1 X54.27 Y104.783 E34.4711
G1 X53.573 Y103.856 E34.51354
G1 X53.213 Y103.172 E34.54182
G1 X52.928 Y102.43 E34.5709
G1 X52.686 Y101.383 E34.61021
G1 X52.626 Y100.71 E34.63493
G1 X52.656 Y85.931 E35.17564
G1 X52.733 Y85.391 E35.1956
G1 X53.019 Y84.348 E35.23516
G1 X53.272 Y83.755 E35.25875
G1 X53.629 Y83.124 E35.28528
G1 X54.235 Y82.313 E35.32232
G1 X54.744 Y81.8 E35.34876
G1 X55.672 Y81.104 E35.3912
G0 F6000 X55.878 Y81.493
G1 F1200 X56.531 Y81.148 E35.41822
G1 X57.401 Y80.825 E35.45217
G1 X58.272 Y80.637 E35.48477
G1 X58.538 Y80.609 E35.49455
G1 X118.998 Y80.589 E37.70655
G1 X120.124 Y80.715 E37.74801
G1 X121.001 Y80.954 E37.78126
G1 X121.643 Y81.231 E37.80684
G1 X122.188 Y81.544 E37.82984
G1 X122.906 Y82.08 E37.86262
G1 X123.376 Y82.541 E37.88671
G1 X124.034 Y83.408 E37.92653
G1 X124.373 Y84.046 E37.95296
G1 X124.639 Y84.727 E37.97971
G1 X124.881 Y85.774 E38.01902
G1 X124.93 Y86.347 E38.04006
G1 X124.904 Y101.065 E38.57854
G1 X124.827 Y101.605 E38.5985
G1 X124.572 Y102.537 E38.63385
G1 X124.319 Y103.13 E38.65743
G1 X124.014 Y103.672 E38.68019
G1 X123.447 Y104.437 E38.71503
G1 X122.986 Y104.907 E38.73911
G1 X122.119 Y105.565 E38.77893
G1 X121.481 Y105.904 E38.80537
G1 X120.8 Y106.17 E38.83211
G1 X119.753 Y106.412 E38.87143
G1 X119.182 Y106.461 E38.8924
G1 X58.462 Y106.435 E41.11391
G1 X57.922 Y106.358 E41.13387
G1 X56.99 Y106.103 E41.16922
G1 X56.397 Y105.85 E41.1928
G1 X55.855 Y105.545 E41.21556
G1 X55.09 Y104.978 E41.2504
G1 X54.62 Y104.517 E41.27448
G1 X53.962 Y103.65 E41.3143
G1 X53.623 Y103.012 E41.34074
G1 X53.357 Y102.331 E41.36748
G1 X53.115 Y101.284 E41.4068
G1 X53.066 Y100.711 E41.42784
G1 X53.092 Y85.993 E41.96632
G1 X53.169 Y85.453 E41.98627
G1 X53.424 Y84.521 E42.02162
G1 X53.677 Y83.928 E42.04521
G1 X53.982 Y83.386 E42.06797
G1 X54.549 Y82.621 E42.1028
G1 X55.01 Y82.151 E42.12689
G1 X55.878 Y81.493 E42.16674
G0 F6000 X56.085 Y81.881
G1 F1200 X56.686 Y81.56 E42.19167
G1 X57.495 Y81.255 E42.2233
G1 X58.318 Y81.075 E42.25412
G1 X58.584 Y81.047 E42.26391
G1 X118.998 Y81.029 E44.47422
G1 X120.074 Y81.152 E44.51385
G1 X120.828 Y81.358 E44.54244
G1 X121.426 Y81.614 E44.56624
G1 X121.926 Y81.898 E44.58728
G1 X122.6 Y82.397 E44.61796
G1 X123.027 Y82.809 E44.63967
G1 X123.646 Y83.616 E44.67688
G1 X123.964 Y84.209 E44.7015
G1 X124.211 Y84.828 E44.72588
G1 X124.443 Y85.813 E44.76291
G1 X124.49 Y86.346 E44.78248
G1 X124.468 Y101.003 E45.31873
G1 X124.391 Y101.543 E45.33868
G1 X124.148 Y102.42 E45.37198
G1 X123.934 Y102.916 E45.39174
G1 X123.659 Y103.411 E45.41246
G1 X123.13 Y104.131 E45.44515
G1 X122.718 Y104.558 E45.46685
G1 X121.911 Y105.177 E45.50406
G1 X121.318 Y105.495 E45.52868
G1 X120.699 Y105.742 E45.55307
G1 X119.714 Y105.974 E45.59009
G1 X119.182 Y106.021 E45.60963
G1 X58.524 Y105.999 E47.82887
G1 X57.984 Y105.922 E47.84883
G1 X57.107 Y105.679 E47.88212
G1 X56.611 Y105.465 E47.90189
G1 X56.116 Y105.19 E47.9226
G1 X55.396 Y104.661 E47.95529
G1 X54.969 Y104.249 E47.977
G1 X54.35 Y103.442 E48.01421
G1 X54.032 Y102.849 E48.03883
G1 X53.785 Y102.23 E48.06321
G1 X53.553 Y101.245 E48.10024
G1 X53.506 Y100.712 E48.11981
G1 X53.528 Y86.055 E48.65606
G1 X53.605 Y85.515 E48.67601
G1 X53.848 Y84.638 E48.70931
G1 X54.062 Y84.142 E48.72907
G1 X54.337 Y83.647 E48.74979
G1 X54.866 Y82.927 E48.78248
G1 X55.278 Y82.5 E48.80418
G1 X56.085 Y81.881 E48.84139
G0 F6000 X56.294 Y82.268
G1 F1200 X56.844 Y81.971 E48.86426
G1 X57.59 Y81.685 E48.89349
G1 X58.364 Y81.513 E48.9225
G1 X58.63 Y81.485 E48.93229
G1 X118.998 Y81.469 E51.14092
G1 X120.023 Y81.589 E51.17868
G1 X120.656 Y81.763 E51.2027
G1 X121.211 Y81.998 E51.22475
G1 X121.666 Y82.253 E51.24383
G1 X122.294 Y82.714 E51.27233
G1 X122.721 Y83.126 E51.29404
G1 X123.259 Y83.825 E51.32631
G1 X123.555 Y84.372 E51.34907
G1 X123.802 Y84.991 E51.37345
G1 X124.005 Y85.853 E51.40585
G1 X124.05 Y86.345 E51.42392
G1 X124.032 Y100.941 E51.95794
G1 X123.955 Y101.481 E51.97789
G1 X123.743 Y102.247 E52.00697
G1 X123.549 Y102.702 E52.02507
G1 X123.274 Y103.197 E52.04579
G1 X122.813 Y103.825 E52.07429
G1 X122.401 Y104.252 E52.096
G1 X121.702 Y104.79 E52.12827
G1 X121.155 Y105.086 E52.15102
G1 X120.536 Y105.333 E52.17541
G1 X119.674 Y105.536 E52.20781
G1 X119.182 Y105.581 E52.22588
G1 X58.586 Y105.563 E54.44286
G1 X58.046 Y105.486 E54.46281
G1 X57.28 Y105.274 E54.49189
G1 X56.825 Y105.08 E54.50999
G1 X56.33 Y104.805 E54.5307
G1 X55.702 Y104.344 E54.55921
G1 X55.275 Y103.932 E54.58092
G1 X54.737 Y103.233 E54.61319
G1 X54.441 Y102.686 E54.63594
G1 X54.194 Y102.067 E54.66032
G1 X53.991 Y101.205 E54.69272
G1 X53.946 Y100.713 E54.7108
G1 X53.964 Y86.117 E55.24481
G1 X54.041 Y85.577 E55.26477
G1 X54.253 Y84.811 E55.29385
G1 X54.447 Y84.356 E55.31194
G1 X54.722 Y83.861 E55.33266
G1 X55.183 Y83.233 E55.36116
G1 X55.595 Y82.806 E55.38287
G1 X56.294 Y82.268 E55.41514
G0 F6000 X56.505 Y82.654
G1 F1200 X57.004 Y82.381 E55.43595
G1 X57.687 Y82.114 E55.46278
G1 X58.41 Y81.951 E55.4899
G1 X58.676 Y81.923 E55.49968
G1 X118.998 Y81.909 E57.70663
G1 X119.909 Y82.014 E57.74018
G1 X120.486 Y82.169 E57.76204
G1 X120.998 Y82.383 E57.78235
G1 X121.407 Y82.609 E57.79944
G1 X121.988 Y83.031 E57.82571
G1 X122.415 Y83.443 E57.84742
G1 X122.873 Y84.036 E57.87484
G1 X123.146 Y84.535 E57.89565
G1 X123.393 Y85.154 E57.92003
G1 X123.576 Y85.951 E57.94995
G1 X123.61 Y86.345 E57.96442
G1 X123.596 Y100.879 E58.49616
G1 X123.519 Y101.419 E58.51612
G1 X123.338 Y102.074 E58.54098
G1 X123.144 Y102.529 E58.55907
G1 X122.918 Y102.938 E58.57617
G1 X122.496 Y103.519 E58.60244
G1 X122.084 Y103.946 E58.62415
G1 X121.491 Y104.404 E58.65156
G1 X120.992 Y104.677 E58.67237
G1 X120.373 Y104.924 E58.69676
G1 X119.576 Y105.107 E58.72668
G1 X119.182 Y105.141 E58.74114
G1 X58.648 Y105.127 E60.95585
G1 X58.108 Y105.05 E60.97581
G1 X57.453 Y104.869 E61.00067
G1 X56.998 Y104.675 E61.01876
G1 X56.589 Y104.449 E61.03586
G1 X56.008 Y104.027 E61.06213
G1 X55.581 Y103.615 E61.08384
G1 X55.123 Y103.022 E61.11125
G1 X54.85 Y102.523 E61.13206
G1 X54.603 Y101.904 E61.15645
G1 X54.42 Y101.107 E61.18637
G1 X54.386 Y100.713 E61.20083
G1 X54.4 Y86.179 E61.73258
G1 X54.477 Y85.639 E61.75253
G1 X54.658 Y84.984 E61.7774
G1 X54.852 Y84.529 E61.79549
G1 X55.078 Y84.12 E61.81259
G1 X55.5 Y83.539 E61.83886
G1 X55.912 Y83.112 E61.86057
G1 X56.505 Y82.654 E61.88798
G0 F6000 X56.719 Y83.039
G1 F1200 X57.167 Y82.79 E61.90673
G1 X57.786 Y82.543 E61.93112
G1 X58.456 Y82.389 E61.95627
G1 X58.722 Y82.361 E61.96606
G1 X118.998 Y82.349 E64.17132
G1 X119.795 Y82.439 E64.20067
G1 X120.372 Y82.594 E64.22253
G1 X120.785 Y82.768 E64.23892
G1 X121.194 Y82.994 E64.25602
G1 X121.682 Y83.348 E64.27808
G1 X122.109 Y83.76 E64.29978
G1 X122.488 Y84.25 E64.32245
G1 X122.737 Y84.698 E64.3412
G1 X122.984 Y85.317 E64.36558
G1 X123.138 Y85.991 E64.39088
G1 X123.17 Y86.345 E64.40388
G1 X123.16 Y100.817 E64.93336
G1 X123.083 Y101.357 E64.95331
G1 X122.933 Y101.903 E64.97403
G1 X122.759 Y102.316 E64.99043
G1 X122.533 Y102.725 E65.00752
G1 X122.179 Y103.213 E65.02958
G1 X121.767 Y103.64 E65.05129
G1 X121.277 Y104.019 E65.07395
G1 X120.829 Y104.268 E65.0927
G1 X120.21 Y104.515 E65.11709
G1 X119.536 Y104.669 E65.14238
G1 X119.182 Y104.701 E65.15539
G1 X58.71 Y104.691 E67.36782
G1 X58.17 Y104.614 E67.38778
G1 X57.624 Y104.464 E67.4085
G1 X57.211 Y104.29 E67.42489
G1 X56.802 Y104.064 E67.44199
G1 X56.314 Y103.71 E67.46405
G1 X55.887 Y103.298 E67.48575
G1 X55.508 Y102.808 E67.50842
G1 X55.259 Y102.36 E67.52717
G1 X55.012 Y101.741 E67.55155
G1 X54.858 Y101.067 E67.57685
G1 X54.826 Y100.713 E67.58985
G1 X54.836 Y86.241 E68.11933
G1 X54.913 Y85.701 E68.13928
G1 X55.063 Y85.155 E68.16
G1 X55.237 Y84.742 E68.1764
G1 X55.463 Y84.333 E68.19349
G1 X55.817 Y83.845 E68.21555
G1 X56.229 Y83.418 E68.23726
G1 X56.719 Y83.039 E68.25992
G0 F6000 X56.936 Y83.422
G1 F1200 X57.33 Y83.199 E68.27649
G1 X57.949 Y82.952 E68.30087
G1 X58.502 Y82.827 E68.32161
G1 X58.768 Y82.799 E68.3314
G1 X118.998 Y82.789 E70.53498
G1 X119.684 Y82.865 E70.56023
G1 X120.204 Y83.001 E70.5799
G1 X120.572 Y83.153 E70.59446
G1 X120.981 Y83.379 E70.61156
G1 X121.379 Y83.667 E70.62953
G1 X121.763 Y84.032 E70.64892
G1 X122.105 Y84.467 E70.66916
G1 X122.328 Y84.861 E70.68573
G1 X122.575 Y85.48 E70.71011
G1 X122.7 Y86.033 E70.73085
G1 X122.73 Y86.345 E70.74232
G1 X122.724 Y100.755 E71.26953
G1 X122.647 Y101.295 E71.28948
G1 X122.526 Y101.735 E71.30618
G1 X122.374 Y102.103 E71.32074
G1 X122.148 Y102.512 E71.33784
